src/components/atoms/Icon/icons/hospital-regular.svg

<svg width="24" height="24" xmlns="http://www.w3.org/2000/svg"><g fill="none" fill-rule="evenodd"><path fill="none" d="M0 0h24v24H0z"/><path d="M19 3H5c-1.1 0-1.99.9-1.99 2L3 19c0 1.1.9 2 2 2h14c1.1 0 2-.9 2-2V5c0-1.1-.9-2-2-2zm-1 11h-4v4h-4v-4H6v-4h4V6h4v4h4v4z" fill="currentColor" fill-rule="nonzero"/></g></svg>

<?xml version="1.0" encoding="UTF-8"?>
<svg width="24px" height="24px" viewBox="0 0 24 24" version="1.1" xmlns="http://www.w3.org/2000/svg" xmlns:xlink="http://www.w3.org/1999/xlink">
    <!-- Generator: Sketch 51.1 (57501) - http://www.bohemiancoding.com/sketch -->
    <title>baseline-local_hospital-24px</title>
    <desc>Created with Sketch.</desc>
    <defs></defs>
    <g id="baseline-local_hospital-24px" stroke="none" stroke-width="1" fill="none" fill-rule="evenodd">
        <g>
            <rect id="Rectangle" fill-opacity="0" fill="currentColor" x="0" y="0" width="24" height="24"></rect>
            <path d="M19,3 L5,3 C3.9,3 3.01,3.9 3.01,5 L3,19 C3,20.1 3.9,21 5,21 L19,21 C20.1,21 21,20.1 21,19 L21,5 C21,3.9 20.1,3 19,3 Z M18,14 L14,14 L14,18 L10,18 L10,14 L6,14 L6,10 L10,10 L10,6 L14,6 L14,10 L18,10 L18,14 Z" id="Shape" fill="currentColor" fill-rule="nonzero"></path>
        </g>
    </g>
</svg>
